X:397
T:Dimisjonspols
C:Sturla Eide
R:Rørospols
O:Røros, [[!Norge]]
N:[[!Norge]]
D:- Småviltlaget - Lader om
D:- Landsfestivalen i Gammeldansmusikk 1999 Meisterspel
Z:Björn Ek 2008-06-29 enligt Småviltlagets cd "Lader om".
M:3/4
L:1/8
K:G
%
d|:g2 gf d>f|(3ece (3egf d>B|c2 cB G>B|(3AFA (3AcB G>d|
g2 gf d>f   |(3ece (3eaf d>B|c2 cB G>B|1A2 G3 d      :|2A2 G3 D||
%
|:G2 BG B>B|c2 cB G>B|c2 cB G>B|A>G F<E D2|
G2 BG B>B  |c2 cB G>B|c2 cB G>B|1(3AFA G3 D:|2(3AFA G3|]
(:musicend:)

Attach:Dimisjonspols.pdf
(:music:)
